X:1
T: January Snows
M: 6/8
L: 1/8
K:Edor
E |: "Em" E2 B B2 c | "Em7" d B2-BAG | "Am" A2 B E2 D | "Em" E3-E2 E |
"Em" E2 B B2 c | "D" d d2 e2 d | "A" c A2 A2 G | A3-AGF |
"Em" G2 A B2 c | "D" d3 e2 d | "A" c A2 A2 c | "Dm" d3-d(3=cBA |
"Em" B E2 G2 A | B d2 "C/Am" =c2 cB | "Em" B E2 E2 D |1 "Em" E3-E2 E :|2 "Em" E6 ||
